Yaru++/apps/16/debian.svg

<svg height="16" viewBox="0 0 16 16" width="16" xmlns="http://www.w3.org/2000/svg">
  <path d="m13.116572 6.8491429c.01829.4331428-.131428.6434285-.262857 1.0125714l-.237714.1154286c-.197715.368.01714.2342857-.124572.5245714-.304001.2628571-.925714.8217147-1.124571.8708567-.14743-.0023.09714-.164571.128-.228571-.409143.270857-.328.406857-.954286.572571l-.01829-.04c-1.5428532.700572-3.6879961-.6868567-3.6582818-2.580571-.018286.1211429-.046857.089143-.081143.1394286-.081143-.976.4662857-1.9542857 1.3862857-2.3531429.9028571-.4297143 1.9600011-.2548571 2.6045721.3245714-.353143-.4457142-1.0594297-.92-1.8960007-.8754285-.8205714.010286-1.5862857.5142857-1.8434286 1.056-.4194285.2548571-.4662857.984-.6502857 1.1154285-.2468571 1.744.4617143 2.4994289 1.6628572 3.3828569.1885714.121143.052571.139429.078857.234286-.3988571-.181714-.7668571-.451429-1.0651429-.784.16.225143.3302858.443429.5531429.616-.3748571-.123429-.8788571-.878857-1.0251429-.909714.648 1.12 2.6274289 1.962285 3.6662867 1.541714-.4800008.01829-1.0914295.01143-1.6285724-.180571-.2285714-.113143-.5348571-.346286-.48-.388572 1.4125716.509714 2.8765714.386286 4.1017154-.561143.308571-.233143.650285-.6319997.749714-.6365711-.154286.2148571.02286.1017142-.08914.2937141.309714-.4822856-.133714-.1965713.32-.8342856l.170286.2228572c-.06286-.4011429.514286-.8857143.457143-1.5211429.133714-.1942857.146285.2102857.008.656.193143-.4948571.04914-.5737143.09943-.984.05486.1394286.125715.2834286.162286.4285714-.126862-.4777142.130281-.8057142.194281-1.0811428-.064-.0285714-.197715.2102857-.226286-.3531429.003429-.2468571.070857-.1268571.094857-.1885714-.049143-.0285714-.181714-.2102857-.259428-.5725714.057142-.0834286.154285.2205714.233142.2342857-.049142-.2868572-.139428-.5062857-.141714-.7268572-.230857-.4617142-.081143.0708572-.267428-.1965714-.243429-.7371428.202285-.1702857.234285-.5062857.369143.5188571.581715 1.3188571.678857 1.6525714-.073142-.4045714-.193142-.7977143-.340571-1.1782857.113143.046857-.181714-.824.147429-.2491428-.349715-1.2434286-1.498286-2.4022858-2.552-2.9451429.128.1131429.290285.2571429.233142.2777143-.524571-.2982857-.433142-.3222857-.508571-.4502857-.428571-.168-.457143.012571-.740571 0-.804572-.4125715-.9600005-.368-1.7017155-.632l.034286.1542857c-.5348571-.1702857-.6217143.065143-1.2011429 0-.0342857-.0262857.1862858-.0971429.3668572-.1234286-.5165714.0685714-.4925714-.0971428-.9954286.0182857.1234286-.0845714.2537143-.1394285.3874286-.2125714-.4217143.026286-1.0045714.2388571-.824.044571-.6868572.296-1.9062857.7108572-2.5908572 1.3291429l-.0228571-.1394282c-.312.3622857-1.3668571 1.0834286-1.4502857 1.5554286l-.0845714.0182857c-.1622858.2651429-.2697143.5668571-.3988572.8411429-.2114286.352-.312.1337142-.2834286.1897142-.4194285.8205715-.6262857 1.5097143-.8068571 2.0765715.128.184.00229 1.1142857.052571 1.8571428-.212571 3.6719996 2.6720004 7.2331426 5.8217147 8.0571426.464.16 1.1485714.154286 1.7337143.170286-.6868571-.190857-.7794286-.101714-1.4502857-.328-.4822857-.219429-.5897143-.468571-.9337143-.757714l.136.230857c-.6708571-.228572-.3908571-.283429-.9382857-.451429l.1462857-.180571c-.2171429-.016-.5794286-.354286-.6777143-.544l-.2377143.01143c-.2868571-.344002-.4411428-.58743-.4285714-.77943l-.077714.133714c-.0868574-.146286-1.0548574-1.278857-.5508574-1.014857-.0948572-.083429-.2171429-.133714-.3542857-.370286l.1028571-.112c-.2411429-.299428-.4434286-.685714-.4285714-.810285.1291428.166857.2182857.196571.3074285.225142-.6114285-1.458285-.6457142-.078857-1.1062857-1.484571l.0971429-.008c-.0731429-.107429-.1188572-.225143-.1817143-.340571l.044571-.409143c-.4399996-.490286-.1234281-2.082286-.060571-2.9531431.0445714-.3565715.3668571-.7348572.6114286-1.3268572l-.1497143-.024c.2857143-.48 1.6308571-1.9302857 2.2502857-1.8571428.3017143-.3645715-.060571 0-.1177143-.091429.6605714-.6639996.8697143-.4697139 1.3188572-.5874282.488-.2754286-.4148572.1074286-.1817143-.1051428.824-.2045715.5908571-.4662858 1.6788571-.5714286.1154286.0628571-.2674286.0971428-.3622857.1782857.6948571-.328 2.195429-.2525714 3.1737145.1828571 1.136.512 2.408 2.0205715 2.457143 3.4411429l.05829.013714c-.02857.5691428.08914 1.2194286-.115429 1.8171428l.139429-.2834285" fill="#808080"/>
</svg>

<svg xmlns="http://www.w3.org/2000/svg" width="16" height="16" version="1.1" viewBox="0 0 16 16" style="isolation:isolate">
 <defs>
  <style id="current-color-scheme" type="text/css">
   .ColorScheme-Text { color: #808080; } .ColorScheme-Highlight { color: #5294e2; }
  </style>
 </defs>
 <path fill="currentColor" class="ColorScheme-Text" d="m 13.116572,6.8491429 c 0.01829,0.4331428 -0.131428,0.6434285 -0.262857,1.0125714 l -0.237714,0.1154286 c -0.197715,0.368 0.01714,0.2342857 -0.124572,0.5245714 -0.304001,0.2628571 -0.925714,0.8217147 -1.124571,0.8708567 -0.14743,-0.0023 0.09714,-0.164571 0.128,-0.228571 -0.409143,0.270857 -0.328,0.406857 -0.954286,0.572571 l -0.01829,-0.04 C 8.9794288,10.377143 6.8342859,8.9897143 6.8640002,7.096 6.8457142,7.2171429 6.8171432,7.185143 6.7828572,7.2354286 6.7017142,6.2594286 7.2491429,5.2811429 8.1691429,4.8822857 9.072,4.4525714 10.129144,4.6274286 10.773715,5.2068571 10.420572,4.7611429 9.7142853,4.2868571 8.8777143,4.3314286 8.0571429,4.3417146 7.2914286,4.8457143 7.0342857,5.3874286 6.6148572,5.6422857 6.568,6.3714286 6.384,6.5028571 6.1371429,8.2468571 6.8457143,9.002286 8.0468572,9.885714 8.2354286,10.006857 8.0994282,10.025143 8.1257142,10.12 7.7268571,9.938286 7.3588571,9.668571 7.0605713,9.336 c 0.16,0.225143 0.3302858,0.443429 0.5531429,0.616 C 7.2388571,9.828571 6.7348571,9.073143 6.5885713,9.042286 c 0.648,1.12 2.6274289,1.962285 3.6662867,1.541714 -0.4800008,0.01829 -1.0914295,0.01143 -1.6285724,-0.180571 -0.2285714,-0.113143 -0.5348571,-0.346286 -0.48,-0.388572 1.4125716,0.509714 2.8765714,0.386286 4.1017154,-0.561143 0.308571,-0.233143 0.650285,-0.6319997 0.749714,-0.6365711 -0.154286,0.2148571 0.02286,0.1017142 -0.08914,0.2937141 0.309714,-0.4822856 -0.133714,-0.1965713 0.32,-0.8342856 l 0.170286,0.2228572 c -0.06286,-0.4011429 0.514286,-0.8857143 0.457143,-1.5211429 0.133714,-0.1942857 0.146285,0.2102857 0.008,0.656 0.193143,-0.4948571 0.04914,-0.5737143 0.09943,-0.984 0.05486,0.1394286 0.125715,0.2834286 0.162286,0.4285714 C 13.998858,6.6011429 14.256001,6.2731429 14.320001,5.9977143 14.256001,5.9691429 14.122286,6.208 14.093715,5.6445714 14.097144,5.3977143 14.164572,5.5177143 14.188572,5.456 14.139429,5.4274286 14.006858,5.2457143 13.929144,4.8834286 13.986286,4.8 14.083429,5.104 14.162286,5.1177143 14.113144,4.8308571 14.022858,4.6114286 14.020572,4.3908571 13.789715,3.9291429 13.939429,4.4617143 13.753144,4.1942857 13.509715,3.4571429 13.955429,4.024 13.987429,3.688 14.356572,4.2068571 14.569144,5.0068571 14.666286,5.3405714 14.593144,4.936 14.473144,4.5428571 14.325715,4.1622857 c 0.113143,0.046857 -0.181714,-0.824 0.147429,-0.2491428 -0.349715,-1.2434286 -1.498286,-2.4022858 -2.552,-2.9451429 0.128,0.1131429 0.290285,0.2571429 0.233142,0.2777143 -0.524571,-0.2982857 -0.433142,-0.3222857 -0.508571,-0.4502857 -0.428571,-0.168 -0.457143,0.012571 -0.740571,0 -0.804572,-0.4125715 -0.9600005,-0.368 -1.7017155,-0.632 l 0.034286,0.1542857 c -0.5348571,-0.1702857 -0.6217143,0.065143 -1.2011429,0 C 8.0022859,0.2914286 8.2228574,0.2205714 8.4034288,0.1942857 7.8868574,0.2628571 7.9108574,0.0971429 7.4080002,0.2125714 7.5314288,0.128 7.6617145,0.0731429 7.7954288,0 7.3737145,0.026286 6.7908574,0.2388571 6.9714288,0.044571 6.2845716,0.340571 5.0651431,0.7554282 4.3805716,1.3737139 L 4.3577145,1.2342857 c -0.312,0.3622857 -1.3668571,1.0834286 -1.4502857,1.5554286 L 2.8228574,2.808 C 2.6605716,3.0731429 2.5531431,3.3748571 2.4240002,3.6491429 c -0.2114286,0.352 -0.312,0.1337142 -0.2834286,0.1897142 -0.4194285,0.8205715 -0.6262857,1.5097143 -0.8068571,2.0765715 0.128,0.184 0.00229,1.1142857 0.052571,1.8571428 -0.212571,3.6719996 2.6720004,7.2331426 5.8217147,8.0571426 0.464,0.16 1.1485714,0.154286 1.7337143,0.170286 C 8.2548574,15.809143 8.1622859,15.898286 7.4914288,15.672 7.0091431,15.452571 6.9017145,15.203429 6.5577145,14.914286 l 0.136,0.230857 C 6.0228574,14.916571 6.3028574,14.861714 5.7554288,14.693714 l 0.1462857,-0.180571 c -0.2171429,-0.016 -0.5794286,-0.354286 -0.6777143,-0.544 l -0.2377143,0.01143 C 4.6994288,13.636571 4.5451431,13.393143 4.5577145,13.201143 l -0.077714,0.133714 C 4.3931431,13.188571 3.4251431,12.056 3.9291431,12.32 3.8342859,12.236571 3.7120002,12.186286 3.5748574,11.949714 l 0.1028571,-0.112 C 3.4365716,11.538286 3.2342859,11.152 3.2491431,11.027429 3.3782859,11.194286 3.4674288,11.224 3.5565716,11.252571 2.9451431,9.794286 2.9108574,11.173714 2.4502859,9.768 L 2.5474288,9.76 C 2.4742859,9.652571 2.4285716,9.534857 2.3657145,9.419429 L 2.4102855,9.010286 C 1.9702859,8.52 2.2868574,6.928 2.3497145,6.0571429 2.3942859,5.7005714 2.7165716,5.3222857 2.9611431,4.7302857 l -0.1497143,-0.024 c 0.2857143,-0.48 1.6308571,-1.9302857 2.2502857,-1.8571428 0.3017143,-0.3645715 -0.060571,0 -0.1177143,-0.091429 C 5.6045716,2.0937143 5.8137145,2.288 6.2628574,2.1702857 6.7508574,1.8948571 5.8480002,2.2777143 6.0811431,2.0651429 6.9051431,1.8605714 6.6720002,1.5988571 7.7600002,1.4937143 7.8754288,1.5565714 7.4925716,1.5908571 7.3977145,1.672 8.0925716,1.344 9.5931435,1.4194286 10.571429,1.8548571 c 1.136,0.512 2.408,2.0205715 2.457143,3.4411429 l 0.05829,0.013714 c -0.02857,0.5691428 0.08914,1.2194286 -0.115429,1.8171428 l 0.139429,-0.2834285"/>
</svg>
